X: 34543
T: Rince Briotánach
R: reel
M: 4/4
K: Aminor
M:2/4
|:EA Ac|cA c2|cA GB|TA2 A2:|
|:EA Ac|cA c2|Ac e2|ed e2|
e g2 f|ef Te2|d2 ce|ee Td2|
c2 Ad|dd c2|AA GB|A2 A2:|

